X:1
T: Anybody's Hornpipe
N:
C:
S:
A:
O:
R:
M:4/4
K:A
I:speed 232
%W:
% voice 1 (1 lines, 61 notes)
K:A
M:4/4
L:1/16
e4/3 f4/3 g4/3 |a4 e2 c2 A2 c2 f2 e2 |d2 c2 B2 A2 G2 B2 E4 |A2 B2 c2 d2 e2 c2 A2 c2 |B2 e2 ^d2 f2 e4 f2 g2 |a4 e2 c2 A2 c2 f2 e2 |d2 c2 B2 A2 G2 B2 E2 B2 |A2 a2 e2 c2 f2 e2 d2 c2 |A4 c4 A4 e4/3 |f4/3 g4/3
%W:
% voice 1 (1 lines, 57 notes)
a4 e2 c2 |A2 c2 f2 e2 d2 c2 B2 A2 |G2 B2 E4 A2 B2 c2 d2 |e2 c2 A2 c2 B2 e2 ^d2 f2 |e4 f2 g2 a4 e2 c2 |A2 c2 f2 e2 d2 c2 B2 A2 |G2 B2 E2 B2 A2 a2 e2 c2 |f2 e2 d2 c2 A4 c4 |A4 d2 c2
%W:
% voice 1 (1 lines, 66 notes)
B2 c2 B2 A2 |G2 E2 F2 G2 A2 B2 c2 d2 |e2 c2 A2 c2 e2 c2 d2 e2 |f2 e2 d2 c2 B2 e2 ^d2 f2 |e4 f2 g2 a4/3 b4/3 |a4/3 e2 c2 f4/3 g4/3 |f4/3 d2 B2 e4/3 f4/3 |e4/3 c2 A2 d4/3 e4/3 |d4/3 B2 G2 A2 a2 e2 c2 |f2 g f e2 d B A4 c4 |A4 d2 c2
%W:
% voice 1 (1 lines, 64 notes)
B2 c2 B2 A2 |G2 E2 F2 G2 A2 B2 c2 d2 |e2 c2 A2 c2 e2 c2 d2 e2 |f2 e2 d2 c2 B2 e2 ^d2 f2 |e4 f2 g2 a4/3 b4/3 |a4/3 e2 c2 f4/3 g4/3 |f4/3 d2 B2 e4/3 f4/3 |e4/3 c2 A2 d4/3 e4/3 |d4/3 B2 G2 A2 a2 e2 c2 |f2 g f e2 d B A4 c4 |A4 ||
